**kern
*staff2
*tb24
=1-
*clefG2
*k[b-e-a-]
*M4/4
12g/L
.
12e-/
.
12B-/
.
12G/
.
12B-/
.
12e-/J
.
12g/L
.
12e-/
.
12B-/
.
12a-/
.
12f/
.
12c-/J
.
=2
12g/L
.
12e-/
.
12B-/
.
12G/
.
12B-/
.
12e-/J
.
12g/L
.
12e-/
.
12B-/
.
12a-/
.
12f/
.
12c-/J
.
=3
12g/L
.
12e-/
.
12B-/
.
12G/
.
12B-/
.
12e-/J
.
12g/L
.
12e-/
.
12Bn/
.
12G/
.
12B/
.
12e-/J
.
=4
!!linebreak:original
12g/L
.
12e-/
.
12c/
.
12A-/
.
12c/
.
12en/J
.
12f/L
.
12a-/
.
12c/
.
12f/
.
12c/
.
12A-/J
.
=5
12G/L
.
12B-/
.
12f/
.
12e-/
.
12B-/
.
12G/J
.
12F/L
.
12A-/
.
12e-/
.
12d/
.
12A-/
.
12F/J
.
=6
12G/L
.
12B-/
.
12e-/
.
12g/
.
12e-/
.
12B-/J
.
12G/L
.
12B-/
.
12e-/
.
12g/
.
12e-/
.
12B-/J
.
=7
!!linebreak:original
12G/L
.
12B-/
.
12e-/
.
12g/
.
12e-/
.
12B-/J
.
12F/L
.
12A-/
.
12B-/
.
12d/
.
12B-/
.
12A-/J
.
=8
12G/L
.
12B-/
.
12e-/
.
12g/
.
12e-/
.
12B-/J
.
12G/L
.
12B-/
.
12e-/
.
12g/
.
12e-/
.
12B-/J
.
=9
12c/L
.
12e-/
.
12a-/
.
12c/
.
12e-/
.
12a-/J
.
12c-/L
.
12e-/
.
12a-/
.
12c-/
.
12e-/
.
12a-/J
.
=10
!!linebreak:original
12B-/L
.
12f/
.
12a-/
.
12B-/
.
12e-/
.
12a-/J
.
12B-/L
.
12d/
.
12f/
.
12a-/
.
12f/
.
12d/J
.
=11
12G/L
.
12B-/
.
12e-/
.
12g/
.
12e-/
.
12B-/J
.
12G/L
.
12B-/
.
12e-/
.
12g/
.
12e-/
.
12B-/J
.
=12
12G/L
.
12B-/
.
12c/
.
12en/
.
12c/
.
12B-/J
.
12A-/L
.
12c/
.
12f/
.
12a-/
.
12f/
.
12c/J
.
=13
!!linebreak:original
12A-/L
.
12c/
.
12f/
.
12a-/
.
12f/
.
12c/J
.
12B-/L
.
12d-/
.
12f/
.
12d-/
.
12B-/
.
12G/J
.
=14
12A-/L
.
12c/
.
12f/
.
12G/
.
12B-'/
.
12en/J
.
12A-/L
.
12c/
.
12f/
.
12a-/
.
12f/
.
12c/J
.
=15
12A-/L
.
12c/
.
12f/
.
12a-/
.
12f/
.
12c/J
.
12A-/L
.
12c/
.
12f/
.
12a-/
.
12f/
.
12c/J
.
=16
!!linebreak:original
12G/L
.
12c/
.
12g/
.
12Bn/
.
12f/
.
12g/J
.
12G/L
.
12c/
.
12e-/
.
12g/
.
12e-/
.
12c/J
.
=17
12G/L
.
12c/
.
12e-/
.
12g/
.
12e-/
.
12c/J
.
12An/L
.
12c/
.
12e-/
.
12a-/
.
12e-/
.
12c/J
.
=18
12g/L
.
12e-/J
.
12c/
.
12g/ 12bn/
.
12f/
.
12d/J
.
12G/L
.
12c/
.
12e-/
.
12g/
.
12e-/
.
12c/J
.
=19
!!linebreak:original
12G/L
.
12c/
.
12e-/
.
12g/
.
12e-/
.
12c/J
.
12An/L
.
12c/
.
12e-/
.
12f/
.
12e-/
.
12c/J
.
=20
12An/L
.
12c/
.
12e-/
.
12f/
.
12e-/
.
12c/J
.
12F/L
.
12B-/
.
12d/
.
12f/
.
12d/
.
12B-/J
.
=21
12F/L
.
12B-/
.
12d/
.
12f/
.
12d/
.
12B-/J
.
12Bn/L
.
12d/
.
12f/
.
12g/
.
12f/
.
12d/J
.
=22
!!linebreak:original
12Bn/L
.
12d/
.
12f/
.
12g/
.
12f/
.
12d/J
.
12G/L
.
12c/
.
12e-/
.
12g/
.
12e-/
.
12c/J
.
=23
12G/L
.
12c/
.
12e-/
.
12g/
.
12e-/
.
12c/J
.
12e-/L
.
12c/
.
12G/
.
12E-/
.
12G/
.
12c/J
.
=24
12E-/L
.
12G/
.
12c/
.
12e-/
.
12c/
.
12G/J
.
12e-/L
.
12c/
.
12G/
.
12E-/
.
12G/
.
12c/J
.
=25
!!linebreak:original
12E-/L
.
12G/
.
12B-/
.
12e-/
.
12B-/
.
12G/J
.
12e-/L
.
12An/
.
12G-/
.
12E-/
.
12G-/
.
12A/J
.
=26
12G/L
.
12B-/
.
12e-/
.
12F/
.
12A-/
.
12d/J
.
12G/L
.
12B-/
.
12e-/
.
12g/
.
12e-/
.
12B-/J
.
=27
12G/L
.
12B-/
.
12e-/
.
12g/
.
12e-/
.
12B-/J
.
12G/L
.
12B-/
.
12d-/
.
12g/
.
12d-/
.
12B-/J
.
=28
!!linebreak:original
12G/L
.
12B-/
.
12d-/
.
12g/
.
12d-/
.
12B-/J
.
12c/L
.
12e-/
.
12a-/
.
12c-/
.
12e-/
.
12a-/J
.
=29
12B-/L
.
12d/
.
12f/
.
12a-/
.
12f/
.
12d/J
.
12A-/L
.
12B-/
.
12d/
.
12f/
.
12d/
.
12B-/J
.
=30
!!linebreak:original
12G/L
.
12B-/
.
12e-/
.
12g/
.
12d/
.
12f/J
.
12e-/L
.
12A-/
.
12c/
.
12B-/
.
12F#/
.
12A-/J
.
*clefF4
=31
12G\L
.
12D\
.
12F\
.
12E-\
.
12AAn\
.
12C\J
.
12BB-/L
.
12E-/
.
12AA/
.
12BB-/
.
12E-/
.
12AA/J
.
=32
4BB-/
.
.
.
.
.
4r
.
.
.
.
.
2r
.
.
.
.
.
.
.
.
.
.
.
==
*-
